X:117
T:A Dance
O:No 117 Wm Clarke of Feltwell   MS 1858
I:abc2nwc
M:2/4
L:1/16
K:G
N:The Tempest or Comberton Broom Dance
g2d2"^tr"d4|b2g2"^tr"g4|a2d2 e2f2|gfga g2g2|
g2d2"^tr"d4|b2g2"^tr"g4|a2d2 e2f2|g2g2 g4:|
|:d'2b2 b2a2|c'3a f2d2|d'2b2 b2a2|c'3a f2d2|
g2d2"^tr"d4|b2g2"^tr"g4|a2d2 e2f2|g2g2 g4:|
G2B2 d2B2|e2c2 d2B2|e2c2 d2g2|fgag f4|G2B2 d2B2|e2c2 d2g2|
f2g2 (bagf)|g4g4|c'3a f2d2|g2d2 g2d'2|c'3a f2d2|

